src/assets/linkedin.svg

<svg height="512" viewBox="0 0 176 176" width="512" xmlns="http://www.w3.org/2000/svg"><g id="Layer_2" data-name="Layer 2"><g id="linkedin"><path id="icon" d="m152 0h-128a24 24 0 0 0 -24 24v128a24 24 0 0 0 24 24h128a24 24 0 0 0 24-24v-128a24 24 0 0 0 -24-24zm-92 139.28a3.71 3.71 0 0 1 -3.71 3.72h-15.81a3.71 3.71 0 0 1 -3.72-3.72v-66.28a3.72 3.72 0 0 1 3.72-3.72h15.81a3.72 3.72 0 0 1 3.71 3.72zm-11.62-76.28a15 15 0 1 1 15-15 15 15 0 0 1 -15 15zm94.26 76.54a3.41 3.41 0 0 1 -3.42 3.42h-17a3.41 3.41 0 0 1 -3.42-3.42v-31.05c0-4.64 1.36-20.32-12.13-20.32-10.45 0-12.58 10.73-13 15.55v35.86a3.42 3.42 0 0 1 -3.37 3.42h-16.42a3.41 3.41 0 0 1 -3.41-3.42v-66.87a3.41 3.41 0 0 1 3.41-3.42h16.42a3.42 3.42 0 0 1 3.42 3.42v5.78c3.88-5.83 9.63-10.31 21.9-10.31 27.18 0 27 25.38 27 39.32z"/></g></g></svg>

<svg xmlns="http://www.w3.org/2000/svg" width="512" height="512" viewBox="0 0 176 176"><path d="M152 0H24A24 24 0 0 0 0 24v128a24 24 0 0 0 24 24h128a24 24 0 0 0 24-24V24a24 24 0 0 0-24-24M60 139.28a3.71 3.71 0 0 1-3.71 3.72H40.48a3.71 3.71 0 0 1-3.72-3.72V73a3.72 3.72 0 0 1 3.72-3.72h15.81A3.72 3.72 0 0 1 60 73zM48.38 63a15 15 0 1 1 15-15 15 15 0 0 1-15 15m94.26 76.54a3.41 3.41 0 0 1-3.42 3.42h-17a3.41 3.41 0 0 1-3.42-3.42v-31.05c0-4.64 1.36-20.32-12.13-20.32-10.45 0-12.58 10.73-13 15.55v35.86A3.42 3.42 0 0 1 90.3 143H73.88a3.41 3.41 0 0 1-3.41-3.42V72.71a3.41 3.41 0 0 1 3.41-3.42H90.3a3.42 3.42 0 0 1 3.42 3.42v5.78c3.88-5.83 9.63-10.31 21.9-10.31 27.18 0 27 25.38 27 39.32z" data-name="Layer 2"/></svg>
